X: 4360
M: 2/4
L: 1/16
K: C
|:\
edcz e4- | e2d2c2 z2 | fedz f4- | f2e2d2 z2 |\
(g2>>a2) (g2>>a2) | (g2>>a2) g4 | fedz edcz | de^fz g4 :|\
gecd e2d2 | d3c c4 | Gced d2c2 | Bag2 g4 |
gecd e2d2 | d3c c4 | Aced cecA |  ^FDFA d2z2 |\
_B2BB _b4 | gf_ez fedz | _edcz d^cdz | G2GG G2GG |
edcz e4- | e2d2c2 z2 | fedz f4- | f2e2d2 z2 |\
(g2>>a2) (g2>>a2) | (g2>>a2) g4 | fedz edcz | gabz c'4 ||\
g2e2c2G2 | edc2 c2G2 | c8 |\


